packages/kaspersky-hexa-ui-icons/src/iconsSVGs/48/ParentalControl.svg

<svg width="48" height="48" viewBox="0 0 48 48" fill="none" xmlns="http://www.w3.org/2000/svg">
<path fill-rule="evenodd" clip-rule="evenodd" d="M46.6799 26.9999L42.6799 16.1299C42.4621 15.5342 42.1733 14.9668 41.8199 14.4399C40.6921 12.776 38.9654 11.6117 36.9999 11.1899C38.1973 9.72801 38.8385 7.88942 38.8099 5.99994C38.8099 2.79117 36.2087 0.189941 32.9999 0.189941C29.7912 0.189941 27.1899 2.79117 27.1899 5.99994C27.1614 7.88942 27.8026 9.72801 28.9999 11.1899C27.0187 11.612 25.2794 12.7883 24.1499 14.4699C23.7965 14.9968 23.5078 15.5642 23.2899 16.1599L20.4299 23.9999H14.5399C15.1869 22.9871 15.5336 21.8117 15.5399 20.6099C15.5533 19.3954 15.0815 18.2257 14.2292 17.3603C13.3769 16.4948 12.2146 16.0052 10.9999 15.9999C8.48539 16.0329 6.47216 18.0953 6.49995 20.6099C6.48702 21.9038 6.87859 23.1694 7.61995 24.2299C6.56075 24.562 5.64014 25.2331 4.99995 26.1399V26.2099C4.76822 26.5483 4.58007 26.9145 4.43995 27.2999L1.64995 34.8199C1.23087 35.9615 1.54241 37.2432 2.43876 38.065C3.33511 38.8869 4.63892 39.0863 5.73995 38.5699L5.99995 38.4299V47.9999H15.9999V29.9999H19.5799C19.9932 30.7591 20.6685 31.3421 21.4799 31.6399C23.2783 32.271 25.2574 31.3952 25.9999 29.6399V47.9999H39.9999V29.6799C40.7536 31.4232 42.7347 32.2779 44.5199 31.6299C45.4079 31.3067 46.1286 30.6401 46.5199 29.7799C46.944 28.9123 47.0017 27.9106 46.6799 26.9999ZM32.9999 1.99994C34.0362 2.02351 35.0204 2.45859 35.7352 3.2091C36.4501 3.95961 36.8368 4.96381 36.8099 5.99994C36.8099 7.99994 35.8099 10.9999 32.9999 10.9999C30.1899 10.9999 29.1899 7.99994 29.1899 5.99994C29.1631 4.96381 29.5498 3.95961 30.2647 3.2091C30.9795 2.45859 31.9637 2.02351 32.9999 1.99994ZM10.9999 17.9999C12.41 18.0327 13.5279 19.1998 13.4999 20.6099C13.4999 21.9999 12.8299 23.9999 10.9999 23.9999C9.16995 23.9999 8.49995 21.9999 8.49995 20.6099C8.47202 19.1998 9.58992 18.0327 10.9999 17.9999ZM11.9999 45.9999V37.9999H9.99995V45.9999H7.99995V35.9999H13.9999V45.9999H11.9999ZM13.9999 27.9999V33.9999H7.99995V28.9999L5.40995 36.1899C5.29586 36.5356 5.00296 36.792 4.64522 36.8593C4.28749 36.9266 3.92143 36.7942 3.68953 36.5136C3.45762 36.233 3.3965 35.8486 3.52995 35.5099L6.25995 27.9999C6.34948 27.7553 6.47049 27.5233 6.61995 27.3099C7.17704 26.4929 8.10102 26.0028 9.08995 25.9999H19.6999L19.3199 26.9999C19.2514 27.1846 19.2011 27.3755 19.1699 27.5699V27.7799C19.1657 27.8332 19.1657 27.8867 19.1699 27.9399L13.9999 27.9999ZM33.9999 45.9999V31.9999H31.9999V45.9999H27.9999V28.9999H37.9999V45.9999H33.9999ZM44.7399 28.9299C44.4692 29.5159 43.8711 29.88 43.2263 29.8515C42.5815 29.823 42.0179 29.4075 41.7999 28.7999L37.9999 18.3599V26.9999H27.9999V18.3599L24.1999 28.7999C23.8995 29.605 23.0138 30.0258 22.1999 29.7499C21.8007 29.6108 21.4755 29.3146 21.2999 28.9299C21.2757 28.8818 21.2556 28.8316 21.2399 28.7799V28.7099C21.1352 28.3848 21.1352 28.035 21.2399 27.7099L22.5499 23.9999L25.1599 16.8399C25.3229 16.3962 25.5377 15.9733 25.7999 15.5799C26.886 13.9658 28.7045 12.9984 30.6499 12.9999H35.3499C37.2954 12.9984 39.1139 13.9658 40.1999 15.5799C40.4622 15.9733 40.677 16.3962 40.8399 16.8399L44.8399 27.7099C44.9685 28.1139 44.9326 28.5523 44.7399 28.9299Z"  fill="currentColor"/>
</svg>

<svg xmlns="http://www.w3.org/2000/svg" width="48" height="48" fill="none" viewBox="0 0 48 48"><path fill="currentColor" fill-rule="evenodd" d="m46.6799 26.9999-4-10.87a7.9 7.9 0 0 0-.86-1.69 7.8 7.8 0 0 0-4.82-3.25 8 8 0 0 0 1.81-5.19c0-3.2087-2.6012-5.81-5.81-5.81s-5.81 2.6013-5.81 5.81a8 8 0 0 0 1.81 5.19 7.8 7.8 0 0 0-4.85 3.28 7.92 7.92 0 0 0-.86 1.69l-2.86 7.84h-5.89a6.36 6.36 0 0 0 1-3.39 4.56 4.56 0 0 0-4.54-4.61c-2.5145.033-4.5277 2.0954-4.5 4.61a6.21 6.21 0 0 0 1.12 3.62 5.06 5.06 0 0 0-2.62 1.91v.07a4.88 4.88 0 0 0-.56 1.09l-2.79 7.52a3 3 0 0 0 4.09 3.75l.26-.14v9.57h10v-18h3.58a3.56 3.56 0 0 0 1.9 1.64c1.7984.6311 3.7775-.2447 4.52-2v18.36h14v-18.32c.7537 1.7433 2.7348 2.598 4.52 1.95a3.52 3.52 0 0 0 2-1.85 3.6 3.6 0 0 0 .16-2.78m-13.68-25a3.9 3.9 0 0 1 3.81 4c0 2-1 5-3.81 5s-3.81-3-3.81-5a3.9 3.9 0 0 1 3.81-4m-22 16c1.4101.0328 2.528 1.1999 2.5 2.61 0 1.39-.67 3.39-2.5 3.39s-2.5-2-2.5-3.39c-.0279-1.4101 1.09-2.5772 2.5-2.61m1 28v-8h-2v8H8v-10h6v10zm2-18v6h-6v-5l-2.59 7.19a1 1 0 1 1-1.88-.68l2.73-7.51a3 3 0 0 1 .36-.69 3 3 0 0 1 2.47-1.31H19.7l-.38 1a3 3 0 0 0-.15.57v.21a1 1 0 0 0 0 .16zm20 18v-14h-2v14h-4v-17h10v17zm10.74-17.07a1.59 1.59 0 0 1-2.94-.13l-3.8-10.44v8.64h-10v-8.64l-3.8 10.44c-.3004.8051-1.1861 1.2259-2 .95a1.55 1.55 0 0 1-.9-.82.94.94 0 0 1-.06-.15v-.07a1.63 1.63 0 0 1 0-1l1.31-3.71 2.61-7.16a6 6 0 0 1 .64-1.26 5.84 5.84 0 0 1 4.85-2.58h4.7a5.84 5.84 0 0 1 4.85 2.58c.2623.3934.4771.8163.64 1.26l4 10.87c.1286.404.0927.8424-.1 1.22" clip-rule="evenodd"/></svg>
